X:75
T:Sean Tiobrad \'Arann
T:Old Tipperary
R:jig
S:Version 2: Session at Fleadh Ceol in Sligo 1990
D:Mary Bergin: Feadoga Stain
Z:id:hn-jig-75
M:6/8
K:G
d|:cAF ~G3|B2A ~G3|BAG GFG|ADE FGA|BAF ~G3|B2A G2g|fdd edd|1 fdd cAd:|2 fdd cAF||
|:GBd ~g3|gaf ~g3|dgg dgg|a2g fga|abg agf|gfe f2e|dcA cde|1 fed cAF:|2 fed cAd||
P:Version 2:
|:dcA GFG|AGF GBd|dcA GFG|ADE FAd|dcA GFG|AGF GBd|fdd edd|1 fdd cAd:|2 fdd cAF||
|:d^cd g2g|gaf g2f|dgg gfg|a2g fga|bgg agf|gfe f2e|dcA dee|1 fed cAF:|2 fed cAd||
<end>
<start>
